X: 33536
T: Rainy Day, The
R: reel
M: 4/4
K: Adorian
|:AG|EAAG A2AB|cded cBAc|B~G3 d~G3|(3Bcdgd edBG|
EAAG A2AB|cBAB cdef|g2af gedB|GBdB BA:|
|:A2|eaag eaag|edef ~g3f|dg~g2 ag~g2|agbg aged|
eaag eaag|edef g2af|(3gfedB G2af|gedB BA:|

